src/assets/tokens/GNT.svg

<svg height="50" viewBox="0 0 50 50" width="50" xmlns="http://www.w3.org/2000/svg"><path d="m35.7303749 49.3476976c-.3478947.369638-.6523025.6523024-.6740459.6523024s-1.2393746-1.2176312-2.7179267-2.7179268c-1.4568088-1.5002955-2.7614136-2.7179267-2.8918741-2.7179267s-.5870722.2391775-1.0001971.5000985c-2.1743414 1.4785522-5.8054915 1.9134204-8.2190105 1.0436839-4.0660184-1.5002956-6.5665111-5.0879589-6.5665111-9.4366418 0-.9784536.1087171-2.1091111.260921-2.522236 1.1958878-3.7616106 3.8268409-6.3055901 7.2405569-7.0666096l1.0871707-.2391775.0652303-3.5441765c.0434868-2.7179268 0-3.5441765-.2174342-3.6094068-.1522039-.0434868-.7610195-.1956907-1.3698351-.3261512-2.3265453-.5653288-4.8705247-2.6309531-5.9576954-4.8922682-.9567103-1.9569072-1.1089142-2.6309531-1.1089142-4.58786036 0-4.58786038 2.6961834-8.21901054 7.1970701-9.65407587 1.0654273-.32615121 3.7833541-.3044078 5.0009853.06523024 3.1310516.95671022 5.3271364 3.06582139 6.5230242 6.26210327.5000985 1.34809168.630559 4.97924182.1956907 6.10989932-1.4785521 3.935558-3.9355579 6.1098994-7.8711159 6.979636l-.6088156.1304605v3.4789462 3.4572029l.8262498.2174341c.4348682.1304605.9132233.2391776 1.0654272.2391776.521842 0 2.8483873 1.3480916 3.6963804 2.1308546.8697366.8045063 1.9134205 2.261315 2.3917756 3.3049989.630559 1.4350653.7610195 2.0656243.7610195 4.0007882 0 2.2613151-.5000985 4.0660184-1.522039 5.6315443l-.5435854.8262497 2.7831571 2.8266438 2.783157 2.8049005zm-15.0246992-5.0662155c1.1306575.4348683 4.6313472.2391775 5.7837482-.3044078 4.935755-2.3700322 6.1098993-8.8930564 2.3048019-12.8503578-.9784537-1.0219404-2.0221375-1.6524994-3.5876634-2.1308545-3.674637-1.1089142-8.0450632 1.261118-9.2626944 5.0227286-.7610195 2.3482887-.630559 4.2834526.4566117 6.4143072.8479932 1.6524995 2.5222361 3.1745384 4.305196 3.8485843zm.0869737-26.8966033c1.1741443.4566117 3.3267423.5435854 4.413913.1956907 3.5876634-1.1524009 5.8489784-4.1095052 5.8489784-7.69716856 0-5.95769547-6.2621032-9.89325342-11.3500621-7.13183983-3.1093083 1.6959863-4.935755 5.65328767-4.0660185 8.84956959.7827629 2.8701306 2.4570058 4.7618077 5.1531892 5.7837481z" fill="#001e5a" transform="matrix(1 0 0 -1 0 50)"/></svg>

<?xml version="1.0" encoding="UTF-8"?>
<svg width="50px" height="50px" viewBox="0 0 50 50" version="1.1" xmlns="http://www.w3.org/2000/svg" xmlns:xlink="http://www.w3.org/1999/xlink">
    <!-- Generator: Sketch 46 (44423) - http://www.bohemiancoding.com/sketch -->
    <title>GNT</title>
    <desc>Created with Sketch.</desc>
    <defs>
        <path d="M35.7303749,49.3476976 C35.3824802,49.7173356 35.0780724,50 35.056329,50 C35.0345856,50 33.8169544,48.7823688 32.3384023,47.2820732 C30.8815935,45.7817777 29.5769887,44.5641465 29.4465282,44.5641465 C29.3160677,44.5641465 28.859456,44.803324 28.4463311,45.064245 C26.2719897,46.5427972 22.6408396,46.9776654 20.2273206,46.1079289 C16.1613022,44.6076333 13.6608095,41.01997 13.6608095,36.6712871 C13.6608095,35.6928335 13.7695266,34.562176 13.9217305,34.1490511 C15.1176183,30.3874405 17.7485714,27.843461 21.1622874,27.0824415 L22.2494581,26.843264 L22.3146884,23.2990875 C22.3581752,20.5811607 22.3146884,19.754911 22.0972542,19.6896807 C21.9450503,19.6461939 21.3362347,19.49399 20.7274191,19.3635295 C18.4008738,18.7982007 15.8568944,16.7325764 14.7697237,14.4712613 C13.8130134,12.5143541 13.6608095,11.8403082 13.6608095,9.88340094 C13.6608095,5.29554056 16.3569929,1.6643904 20.8578796,0.229325071 C21.9233069,-0.096826141 24.6412337,-0.0750827269 25.8588649,0.294555313 C28.9899165,1.25126553 31.1860013,3.3603767 32.3818891,6.55665858 C32.8819876,7.90475026 33.0124481,11.5359004 32.5775798,12.6665579 C31.0990277,16.6021159 28.6420219,18.7764573 24.7064639,19.6461939 L24.0976483,19.7766544 L24.0976483,23.2556006 L24.0976483,26.7128035 L24.9238981,26.9302376 C25.3587663,27.0606981 25.8371214,27.1694152 25.9893253,27.1694152 C26.5111673,27.1694152 28.8377126,28.5175068 29.6857057,29.3002698 C30.5554423,30.1047761 31.5991262,31.5615848 32.0774813,32.6052687 C32.7080403,34.040334 32.8385008,34.670893 32.8385008,36.6060569 C32.8385008,38.867372 32.3384023,40.6720753 31.3164618,42.2376012 L30.7728764,43.0638509 L33.5560335,45.8904947 L36.3391905,48.6953952 L35.7303749,49.3476976 Z M20.7056757,44.2814821 C21.8363332,44.7163504 25.3370229,44.5206596 26.4894239,43.9770743 C31.4251789,41.6070421 32.5993232,35.0840179 28.7942258,31.1267165 C27.8157721,30.1047761 26.7720883,29.4742171 25.2065624,28.995862 C21.5319254,27.8869478 17.1614992,30.25698 15.943868,34.0185906 C15.1828485,36.3668793 15.313309,38.3020432 16.4004797,40.4328978 C17.2484729,42.0853973 18.9227158,43.6074362 20.7056757,44.2814821 Z M20.7926494,17.3848788 C21.9667937,17.8414905 24.1193917,17.9284642 25.2065624,17.5805695 C28.7942258,16.4281686 31.0555408,13.4710643 31.0555408,9.88340094 C31.0555408,3.92570547 24.7934376,-0.00985248452 19.7054787,2.75156111 C16.5961704,4.44754741 14.7697237,8.40484878 15.6394602,11.6011307 C16.4222231,14.4712613 18.096466,16.3629384 20.7926494,17.3848788 Z" id="path-1"></path>
    </defs>
    <g id="Welcome" stroke="none" stroke-width="1" fill="none" fill-rule="evenodd">
        <g id="GNT">
            <mask id="mask-2" fill="white">
                <use xlink:href="#path-1"></use>
            </mask>
            <use id="Combined-Shape" fill="#001E5A" fill-rule="nonzero" transform="translate(25.000000, 25.000000) scale(1, -1) translate(-25.000000, -25.000000) " xlink:href="#path-1"></use>
        </g>
    </g>
</svg>
